static/img/kroki/3854e827a5671dda8d2f438803a39652.svg

<?xml version="1.0" encoding="us-ascii" standalone="no"?><svg xmlns="http://www.w3.org/2000/svg" xmlns:xlink="http://www.w3.org/1999/xlink" contentStyleType="text/css" height="374px" preserveAspectRatio="none" style="width:403px;height:374px;" version="1.1" viewBox="0 0 403 374" width="403px" zoomAndPan="magnify"><defs/><g><!--class digitalocean_domain_record--><g id="elem_digitalocean_domain_record"><rect codeLine="23" fill="#3D176E" height="39.7891" id="digitalocean_domain_record" rx="2.5" ry="2.5" style="stroke:#000D19;stroke-width:0.5;" width="276" x="85.5" y="328.58"/><ellipse cx="100.5" cy="348.4745" fill="#ADD1B2" rx="11" ry="11" style="stroke:#181818;stroke-width:1.0;"/><path d="M103.4688,354.1152 Q102.8906,354.412 102.25,354.5527 Q101.6094,354.7089 100.9063,354.7089 Q98.4063,354.7089 97.0781,353.0683 Q95.7656,351.412 95.7656,348.287 Q95.7656,345.162 97.0781,343.5058 Q98.4063,341.8495 100.9063,341.8495 Q101.6094,341.8495 102.25,342.0058 Q102.9063,342.162 103.4688,342.4589 L103.4688,345.1777 Q102.8438,344.5995 102.25,344.3339 Q101.6563,344.0527 101.0313,344.0527 Q99.6875,344.0527 99,345.1308 Q98.3125,346.1933 98.3125,348.287 Q98.3125,350.3808 99,351.4589 Q99.6875,352.5214 101.0313,352.5214 Q101.6563,352.5214 102.25,352.2558 Q102.8438,351.9745 103.4688,351.3964 L103.4688,354.1152 Z " fill="#000000"/><text fill="#D9B8FF" font-family="Helvetica" font-size="17" lengthAdjust="spacing" textLength="234" x="119.5" y="354.3598">digitalocean_domain_record</text></g><!--class digitalocean_resource--><g id="elem_digitalocean_resource"><rect codeLine="26" fill="#3D176E" height="39.7891" id="digitalocean_resource" rx="2.5" ry="2.5" style="stroke:#000D19;stroke-width:0.5;" width="223" x="7" y="167.79"/><ellipse cx="22" cy="187.6845" fill="#ADD1B2" rx="11" ry="11" style="stroke:#181818;stroke-width:1.0;"/><path d="M24.9688,193.3252 Q24.3906,193.622 23.75,193.7627 Q23.1094,193.9189 22.4063,193.9189 Q19.9063,193.9189 18.5781,192.2783 Q17.2656,190.622 17.2656,187.497 Q17.2656,184.372 18.5781,182.7158 Q19.9063,181.0595 22.4063,181.0595 Q23.1094,181.0595 23.75,181.2158 Q24.4063,181.372 24.9688,181.6689 L24.9688,184.3877 Q24.3438,183.8095 23.75,183.5439 Q23.1563,183.2627 22.5313,183.2627 Q21.1875,183.2627 20.5,184.3408 Q19.8125,185.4033 19.8125,187.497 Q19.8125,189.5908 20.5,190.6689 Q21.1875,191.7314 22.5313,191.7314 Q23.1563,191.7314 23.75,191.4658 Q24.3438,191.1845 24.9688,190.6064 L24.9688,193.3252 Z " fill="#000000"/><text fill="#D9B8FF" font-family="Helvetica" font-size="17" lengthAdjust="spacing" textLength="181" x="41" y="193.5698">digitalocean_resource</text></g><!--class dns_record--><g id="elem_dns_record"><rect codeLine="29" fill="#3D176E" height="39.7891" id="dns_record" rx="2.5" ry="2.5" style="stroke:#000D19;stroke-width:0.5;" width="132" x="264.5" y="167.79"/><ellipse cx="279.5" cy="187.6845" fill="#ADD1B2" rx="11" ry="11" style="stroke:#181818;stroke-width:1.0;"/><path d="M282.4688,193.3252 Q281.8906,193.622 281.25,193.7627 Q280.6094,193.9189 279.9063,193.9189 Q277.4063,193.9189 276.0781,192.2783 Q274.7656,190.622 274.7656,187.497 Q274.7656,184.372 276.0781,182.7158 Q277.4063,181.0595 279.9063,181.0595 Q280.6094,181.0595 281.25,181.2158 Q281.9063,181.372 282.4688,181.6689 L282.4688,184.3877 Q281.8438,183.8095 281.25,183.5439 Q280.6563,183.2627 280.0313,183.2627 Q278.6875,183.2627 278,184.3408 Q277.3125,185.4033 277.3125,187.497 Q277.3125,189.5908 278,190.6689 Q278.6875,191.7314 280.0313,191.7314 Q280.6563,191.7314 281.25,191.4658 Q281.8438,191.1845 282.4688,190.6064 L282.4688,193.3252 Z " fill="#000000"/><text fill="#D9B8FF" font-family="Helvetica" font-size="17" lengthAdjust="spacing" textLength="90" x="298.5" y="193.5698">dns_record</text></g><!--class resource--><g id="elem_resource"><rect codeLine="32" fill="#3D176E" height="39.7891" id="resource" rx="2.5" ry="2.5" style="stroke:#000D19;stroke-width:0.5;" width="113" x="167" y="7"/><ellipse cx="182" cy="26.8945" fill="#ADD1B2" rx="11" ry="11" style="stroke:#181818;stroke-width:1.0;"/><path d="M184.9688,32.5352 Q184.3906,32.832 183.75,32.9727 Q183.1094,33.1289 182.4063,33.1289 Q179.9063,33.1289 178.5781,31.4883 Q177.2656,29.832 177.2656,26.707 Q177.2656,23.582 178.5781,21.9258 Q179.9063,20.2695 182.4063,20.2695 Q183.1094,20.2695 183.75,20.4258 Q184.4063,20.582 184.9688,20.8789 L184.9688,23.5977 Q184.3438,23.0195 183.75,22.7539 Q183.1563,22.4727 182.5313,22.4727 Q181.1875,22.4727 180.5,23.5508 Q179.8125,24.6133 179.8125,26.707 Q179.8125,28.8008 180.5,29.8789 Q181.1875,30.9414 182.5313,30.9414 Q183.1563,30.9414 183.75,30.6758 Q184.3438,30.3945 184.9688,29.8164 L184.9688,32.5352 Z " fill="#000000"/><text fill="#D9B8FF" font-family="Helvetica" font-size="17" lengthAdjust="spacing" textLength="71" x="201" y="32.7798">resource</text></g><!--reverse link digitalocean_resource to digitalocean_domain_record--><g id="link_digitalocean_resource_digitalocean_domain_record"><path codeLine="35" d="M141.0978,222.8546 C161.2778,253.3746 190.58,297.69 210.79,328.25 " fill="none" id="digitalocean_resource-backto-digitalocean_domain_record" style="stroke:#FFAF37;stroke-width:2.0;"/><polygon fill="none" points="131.17,207.84,136.0929,226.1639,146.1026,219.5454,131.17,207.84" style="stroke:#FFAF37;stroke-width:2.0;"/></g><!--reverse link dns_record to digitalocean_domain_record--><g id="link_dns_record_digitalocean_domain_record"><path codeLine="36" d="M307.5333,222.7686 C286.9733,253.2886 257.05,297.69 236.45,328.25 " fill="none" id="dns_record-backto-digitalocean_domain_record" style="stroke:#FFAF37;stroke-width:2.0;"/><polygon fill="none" points="317.59,207.84,302.5571,219.4163,312.5095,226.1208,317.59,207.84" style="stroke:#FFAF37;stroke-width:2.0;"/></g><!--reverse link resource to digitalocean_resource--><g id="link_resource_digitalocean_resource"><path codeLine="37" d="M200.9022,62.0646 C180.7222,92.5846 151.42,136.9 131.21,167.46 " fill="none" id="resource-backto-digitalocean_resource" style="stroke:#FFAF37;stroke-width:2.0;"/><polygon fill="none" points="210.83,47.05,195.8974,58.7554,205.9071,65.3739,210.83,47.05" style="stroke:#FFAF37;stroke-width:2.0;"/></g><!--reverse link resource to dns_record--><g id="link_resource_dns_record"><path codeLine="38" d="M246.4667,61.9786 C267.0267,92.4986 296.95,136.9 317.55,167.46 " fill="none" id="resource-backto-dns_record" style="stroke:#FFAF37;stroke-width:2.0;"/><polygon fill="none" points="236.41,47.05,241.4905,65.3308,251.4429,58.6263,236.41,47.05" style="stroke:#FFAF37;stroke-width:2.0;"/></g><!--SRC=[XP3BRi8m44Nt_WfBh2E5eXOYTGEHgdQ3gj8z6kmniHBRqTWKqSU_5qf19WbXwtjyvymKMY97KuSTDsXMI9xvKjiQ20oV4hbjxYf7VA0KgD6u6Juv6su2Sp38dx7wmA05D8dtGelIelVyBefc8CerkOsLn_f0OFq-GXiYAg_0-sa8f5URW96Cp5OJfPfaitGmaiFn0xOmHnBf7qdJL0wp9d9pLE_UPsAXFv4FuwFDNS2MPcl47zLhUI0YoTQYf_oguoj8gUsQtqTlRqSdiaWNxui2fDiUQ0MLZyVuW8Gkx6hCMrjXDf5gt0c_N8EPE9oEIxtM0Ied4EnIEWFQBWd5_YByYx6VBehGkmq9l02ix_XsINQNF7udITAZmQBgcsnVwobhGUT-zWi0]--></g></svg>

<svg xmlns="http://www.w3.org/2000/svg" width="403" height="374" viewBox="0 0 403 374"><rect width="276" height="39.789" x="85.5" y="328.58" fill="#3D176E" rx="2.5" ry="2.5" style="stroke:#000d19;stroke-width:.5"/><circle cx="100.5" cy="348.474" r="11" fill="#ADD1B2" style="stroke:#181818;stroke-width:1"/><path d="M103.469 354.115q-.578.297-1.219.438-.64.156-1.344.156-2.5 0-3.828-1.64-1.312-1.657-1.312-4.782t1.312-4.781q1.328-1.656 3.828-1.656.703 0 1.344.156.656.156 1.219.453v2.719q-.625-.579-1.219-.844-.594-.281-1.219-.281-1.344 0-2.031 1.078-.687 1.062-.687 3.156t.687 3.172q.688 1.062 2.031 1.062.625 0 1.219-.265.594-.281 1.219-.86z"/><text x="119.5" y="354.36" fill="#D9B8FF" font-family="Helvetica" font-size="17" textLength="234">digitalocean_domain_record</text><rect width="223" height="39.789" x="7" y="167.79" fill="#3D176E" rx="2.5" ry="2.5" style="stroke:#000d19;stroke-width:.5"/><circle cx="22" cy="187.685" r="11" fill="#ADD1B2" style="stroke:#181818;stroke-width:1"/><path d="M24.969 193.325q-.578.297-1.219.438-.64.156-1.344.156-2.5 0-3.828-1.64-1.312-1.657-1.312-4.782t1.312-4.781q1.328-1.656 3.828-1.656.703 0 1.344.156.656.156 1.219.453v2.719q-.625-.578-1.219-.844-.594-.281-1.219-.281-1.343 0-2.031 1.078-.687 1.062-.687 3.156t.687 3.172q.688 1.062 2.031 1.062.625 0 1.219-.265.594-.281 1.219-.86z"/><text x="41" y="193.57" fill="#D9B8FF" font-family="Helvetica" font-size="17" textLength="181">digitalocean_resource</text><rect width="132" height="39.789" x="264.5" y="167.79" fill="#3D176E" rx="2.5" ry="2.5" style="stroke:#000d19;stroke-width:.5"/><circle cx="279.5" cy="187.685" r="11" fill="#ADD1B2" style="stroke:#181818;stroke-width:1"/><path d="M282.469 193.325q-.578.297-1.219.438-.64.156-1.344.156-2.5 0-3.828-1.64-1.312-1.657-1.312-4.782t1.312-4.781q1.328-1.656 3.828-1.656.703 0 1.344.156.656.156 1.219.453v2.719q-.625-.578-1.219-.844-.594-.281-1.219-.281-1.344 0-2.031 1.078-.687 1.062-.687 3.156t.687 3.172q.688 1.062 2.031 1.062.625 0 1.219-.265.594-.281 1.219-.86z"/><text x="298.5" y="193.57" fill="#D9B8FF" font-family="Helvetica" font-size="17" textLength="90">dns_record</text><rect width="113" height="39.789" x="167" y="7" fill="#3D176E" rx="2.5" ry="2.5" style="stroke:#000d19;stroke-width:.5"/><circle cx="182" cy="26.895" r="11" fill="#ADD1B2" style="stroke:#181818;stroke-width:1"/><path d="M184.969 32.535q-.578.297-1.219.438-.64.156-1.344.156-2.5 0-3.828-1.64-1.312-1.657-1.312-4.782t1.312-4.781q1.328-1.656 3.828-1.656.703 0 1.344.156.656.156 1.219.453v2.719q-.625-.578-1.219-.844-.594-.281-1.219-.281-1.344 0-2.031 1.078-.687 1.062-.687 3.156t.687 3.172q.688 1.062 2.031 1.062.625 0 1.219-.265.594-.281 1.219-.86z"/><text x="201" y="32.78" fill="#D9B8FF" font-family="Helvetica" font-size="17" textLength="71">resource</text><path fill="none" d="M141.098 222.855c20.18 30.52 49.482 74.835 69.692 105.395m-79.62-120.41 4.923 18.324 10.01-6.619zm176.363 14.929A498557 498557 0 0 1 236.45 328.25m81.14-120.41-15.033 11.576 9.952 6.705zM200.902 62.065c-20.18 30.52-49.482 74.835-69.692 105.395m79.62-120.41-14.933 11.705 10.01 6.619zm35.637 14.929c20.56 30.52 50.483 74.921 71.083 105.481M236.41 47.05l5.08 18.28 9.953-6.704z" style="stroke:#ffaf37;stroke-width:2"/></svg>
